packages/core/src/svgs/primal.svg

<svg width="24" height="24" viewBox="0 0 24 24" fill="none" xmlns="http://www.w3.org/2000/svg">
<g clip-path="url(#clip0_31_16463)">
<path d="M0 0H24V24H0V0Z" fill="#FD2D3A"/>
<path d="M7.30289 14.713C7.48289 15.4501 7.08003 17.1687 6.85718 17.9359C7.67575 17.9359 9.63003 17.893 9.98575 17.7044C10.4357 17.4773 11.5543 17.7044 12 17.7044C12.4457 17.7044 13.5643 17.2459 14.0143 17.2459C14.46 17.2459 15.5786 17.9359 15.8015 18.1673C15.9815 18.3516 16.77 18.2444 17.1429 18.1673V14.023C17.1429 13.4187 16.92 12.8701 16.92 12.1801C16.92 11.4901 17.1429 11.0273 17.1429 10.3373C17.1429 9.78443 16.9929 6.57443 16.92 5.04014L16.0243 8.49443V7.573C15.8743 7.80443 15.5786 8.35728 15.5786 8.72585C15.5786 9.18443 14.9057 11.0273 14.6829 11.4901C14.5029 11.8587 14.16 14.1001 14.0143 15.1759C13.8909 14.9322 13.8139 14.6677 13.7872 14.3959C13.7872 14.0787 13.7872 13.5601 13.5643 13.5601C13.3415 13.5601 13.7872 12.6387 13.7872 12.1801C13.7872 11.7173 13.7872 10.7959 14.0143 10.3373C14.2372 9.87443 13.5643 8.263 13.1143 7.80442C12.7586 7.43585 12.5229 4.73157 12.4457 3.42871C12.3729 4.58157 12.18 7.02014 12 7.573C11.7772 8.263 11.3272 9.41585 11.3272 9.87443C11.3272 10.3373 11.1043 11.4901 11.1043 12.1801C11.1043 12.733 10.9586 13.483 10.8815 13.7916C10.5815 13.0201 9.98575 11.3487 9.98575 10.7959C9.98575 10.243 9.68575 9.493 9.54004 9.18443L9.31718 10.3373L7.75289 5.04014C7.67575 6.883 7.53003 10.753 7.53003 11.4901C7.53003 12.4116 7.08004 13.7916 7.30289 14.713ZM6.85718 18.8573V18.4287H15.0857C15.4886 18.4287 15.8015 18.5359 15.9086 18.643C15.9943 18.7287 16.7657 18.6773 17.1429 18.643V18.8573C16.62 18.823 15.48 18.7287 15.0857 18.643C14.5929 18.5359 12.6172 18.8573 12.2057 18.8573C11.7943 18.8573 10.7657 18.643 10.3543 18.643C10.0243 18.643 7.88575 18.7844 6.85718 18.8573Z" fill="#FFFFEB"/>
</g>
<defs>
<clipPath id="clip0_31_16463">
<rect width="24" height="24" fill="white"/>
</clipPath>
</defs>
</svg>

<svg xmlns="http://www.w3.org/2000/svg" width="24" height="24" fill="none" viewBox="0 0 24 24"><g clip-path="url(#a)"><path fill="#FD2D3A" d="M0 0h24v24H0z"/><path fill="#FFFFEB" d="M7.303 14.713c.18.737-.223 2.456-.446 3.223.819 0 2.773-.043 3.129-.232.45-.227 1.568 0 2.014 0s1.564-.458 2.014-.458c.446 0 1.565.69 1.788.921.18.185.968.077 1.34 0v-4.144c0-.604-.222-1.153-.222-1.843s.223-1.153.223-1.843c0-.553-.15-3.763-.223-5.297l-.896 3.454v-.921c-.15.231-.445.784-.445 1.153 0 .458-.673 2.301-.896 2.764-.18.369-.523 2.61-.669 3.686a2.2 2.2 0 0 1-.227-.78c0-.317 0-.836-.223-.836s.223-.921.223-1.38c0-.463 0-1.384.227-1.843.223-.463-.45-2.074-.9-2.533-.355-.368-.591-3.072-.668-4.375-.073 1.153-.266 3.591-.446 4.144-.223.69-.673 1.843-.673 2.301 0 .463-.223 1.616-.223 2.306 0 .553-.145 1.303-.222 1.612-.3-.772-.896-2.443-.896-2.996s-.3-1.303-.446-1.612l-.223 1.153L7.753 5.04c-.077 1.843-.223 5.713-.223 6.45 0 .922-.45 2.302-.227 3.223m-.446 4.144v-.428h8.229c.403 0 .716.107.823.214.085.086.857.034 1.234 0v.214c-.523-.034-1.663-.128-2.057-.214-.493-.107-2.469.214-2.88.214s-1.44-.214-1.852-.214c-.33 0-2.468.141-3.497.214"/></g><defs><clipPath id="a"><path fill="#fff" d="M0 0h24v24H0z"/></clipPath></defs></svg>
